X:1
T:Laura serena
T:Laura serena
T:Girolamo Scotto
T:Source : Madrigali a tre voci---Venetia---G.Scotto---1541. Editor : André Vierendeels (12/08/16).
T:Notes : Original clefs : C3, C4, F4 Editorial accidentals above the staff Original note values have been halved Text by Francesco Petrarcha (Sonetto 162) "Quinti toni"  
T:©
T:©
T:©
T:©
T:©
T:©
T:©
C:Girolamo Scotto
Z:©
%%score [ 1 2 3 ]
L:1/8
Q:1/4=125
M:2/2
K:F
V:1 treble-8 nm="Tenor 1" snm="T 1"
V:2 treble-8 nm="Tenor 2" snm="T 2"
V:3 bass nm="Bass" snm="B"
V:1
 z8 | z8 | z8 | z8 | z8 | F4 B4- | B2 AG A2 B2- | BAGF G3 A | B2 c2 d4 | c3 d e2 f2- | f2 ed e4 | %11
w: |||||Lau- *|* * * ra se-|* * * * re- *|na, che fra|ver- di fron- *||
 f8 | z8 | z8 | z4 z2 c2 | f6 ed | e2 f2 d2 d2 | _e2 e2 d3 e | f4 c3 d | _e6 d2- | dc c4 B2 | c8- | %22
w: de,|||mor-|mo- * *|ran- do'à fe- rir|nel vol- * *||to viem-||me,|
 c4 z4 | z2 B2 A2 c2 | B2 A2 G2 c2- | cBAG F4 | B3 A B2 A2 | d4 c2 B2 | A2 c2 c2 c2 | f6 e2 | %30
w: _|fam- mi ri-|so- ve- nir, quand'|_ _ _ _ _|A- * * mor|diem- * *|me, le pri- me|pia- ghi|
 d4 c4 | c2 f4 ed | c2 d3 cde | f4 e4 | d2 f4 e2 | f2 d4 c2 | d8 | c8 || F4 F2 F2 | B6 AG | %40
w: si dol-|ci, et _ _|_ pro- * * *|fon- *||||de.|E'l bel vi-|so- * *|
 A3 B c2 d2 | c4 A2 d2 | d2 c2 d4- | d2 d2 f2 c2 | d2 f2 e2 f2- | fedc d4 | d4 z4 | z2 c2 c2 c2 | %48
w: ri- * * ve-|der, e'l bel|vi- so ri-|* ve- der ch'al-|tri m'as- con- *||de|che sde- gno,|
 d2 f4 e2 | e4 d3 e | f4 c3 d | e4 A3 B | c2 d2 e2 f2- | f2 e2 d2 c2 | d2 f4 e2 | f4 e4 | %56
w: o ge- lo-|si- a ce-|la- * *|* to _|_ tiem- * me,|_ ce- la- to|tiem- * *||
 d4 z2 d2 | c2 c2 A2 f2- | f2 e2 d2 c2- | c2 f3 e d2- | dc c4 B2 | c2 G2 c2 c2 | B2 G2 A2 c2 | %63
w: me, e'|le chio- me d'or|_ fin, far- ci|_ d'ar- * *|* * gen- *|to, e' le chio-|me d'or fin far-|
 B2 B2 A4 | G2 B2 A2 c2- |"^-natural" c2 B2 c2 A2 | G4 A4- | A8 |] %68
w: ci d'ar- gen-|to, far- ci d'ar-|* * gen- *|* to.|_|
V:2
 C4 F4- | F2 ED E2 F2- | FEDC D3 E | F2 G2 F3 E | D6 C2 | D4 D2 D2 | D3 E F2 D2 | D2 D2 E3 F | %8
w: Lau- *|* * * ra se-|* * * * re- *|* na, _ _|_ che|fra ver- di|fron- * de, che|fra ver- di _|
 G2 A2 F3 G | A3 B c2 A2 | B3 A G4 | z2 F2 B4- | B2 AG A2 B2 | G2 G2 A3 B | c2 d2 c2 A2- | %15
w: _ fron- * *||* * de,|mor- mo-|* * * ran- *|do'à fe- rir _|_ nel vol- to|
 AG A2 B2 F2 | c2 A2 B2 G2- | GFGA B4 | A6 A2 | G6 G2 | F2 E2 D4 | C2 F4 E2- | E2 E2 F2 F2 | %23
w: _ _ viem- me, nel|vol- to viem- *|* * * * me,|à fe-|rir nel|vol- to viem-|me, fam- mi|_ ri- so- ve-|
 D2 G2 F2 E2 | D2 F3 E/D/ E2 | F4 z2 D2 | D2 D2 G2 F2- | F2 ED E4 | F8 | A3 G AB c2- | c2 B2 A4- | %31
w: nir, quand' _ A-|mor diem- * * *|me, quand'|A- mor diem- *||me,|diem- * * * *|* * me,|
 A4 z2 F2 | F2 F2 B4- | B2 A2 c2 c2 | B2 A2 G4 | F8- | F8 | F8 || z8 | z8 | z8 | z8 | F4 F2 F2 | %43
w: _ le|pri- me pia-|* ghe si dol-|ci'et pro- fon-|||de.|||||E'l bel vi-|
 B6 AG | A3 B c2 d2- | dcBA B2 G2 | F2 F2 B4 | A8- | A4 z2 G2 | G2 G2 B2 B2 | A8 | G2 c2 c2 c2 | %52
w: so _ _|ri- ve- der, _|_ _ _ _ _ ch'al-|tri m'as- con-|de,|_ che|sde- gn'o ge- lo-|si-|a ce- la- to|
 A3 B c2 d2 | G3 A B2 F2- | FG A2 G4 | A3 G AB c2- | c2 B2 A4 | z4 z2 A2 | c2 c2 B2 G2 | %59
w: tiem- * * me,|ce- * * la-|* * * to|tiem- * * * *|* * me,|e'|le chio- me d'or|
 A2 A2 B2 F2 | E2 F2 D4 | E6 F2 | G2 E2 F2 A2 |"^-natural" D2 G4 F2 | G2 D2 F3 E | D4 C2 F2- | %66
w: fin, far- ci d'ar-|gen- * *|to, e'|le chio- me d'or|fin far- ci|d'ar- gen- * *||
 F2 E2 F4- | F8 |] %68
w: * * to.|_|
V:3
 z8 | z8 | F,,4 B,,4- | B,,2 A,,G,, A,,2 B,,2- | B,,A,,G,,F,, G,,2 A,,2 | B,,3 A,, G,,4- | %6
w: ||Lau- *|* * * ra se-|* * * * re- *|* * na,|
 G,,2 G,,2 F,,2 G,,2 | G,,4 C,3 B,,/A,,/ | G,,2 F,,2 B,,4 | F,,2 F,2 C,2 D,2 | B,,4 C,4 | %11
w: _ che fra ver-|di fron- * *||de, che fra ver-|di fron-|
 F,,4 z2 B,,2 |"^b""^b" E,2 E,2 D,2 B,,2 | C,2 C,2 F,4- | F,2 E,D, E,2 F,2- | F,E,D,C, B,,4 | %16
w: de, mor-|mo- ran- do'à fe-|rir nel vol-|||
"^-natural" A,,2 D,2 G,,4 | C,4 G,,2 G,2 | D,3 E, F,4 | C,6 G,,2 | B,,2 C,2 G,,4 | %21
w: to viem- me,|viem- me, nel|vol- * *|to viem-|* * me,|
 z2 F,,2 A,,3 B,, | C,4 A,,2 B,,2- | B,,2 A,,G,, A,,4 | z2 F,,2 C,2 C,2 | F,,3 G,, A,,2 B,,2- | %26
w: fam- mi _|_ ri- so-|* ve- * nir,|quand' A- mor|diem- * * *|
 B,,A,,G,,F,, G,,2 A,,2 | B,,4 A,,2 G,,2 | F,,8 | F,,4 z4 | z4 z2 F,,2 | F,,2 F,,2 B,,4 | %32
w: * * * * * me|quan' A- mor|diem-|me,|le|pri- me pia-|
 A,,2 B,,2 G,,4 | D,4 C,2 A,,2 | B,,2 F,,2 C,4 | F,,2 B,,4 A,,2 | B,,8 | F,,8 || z8 | %39
w: ghe si dol-|ci'et pro- fon-||de, et pro-|fon-|de.||
 B,,4 B,,2 B,,2 | F,6 E,D, | E,2 F,3 E,D,C, | B,,2 A,,2 B,,2 B,,2 | G,,A,,B,,C, D,2 E,2 | %44
w: E'l bel vi-|so _ _|_ ri- * * *|* ve- der, ch'al-|tri- * * * * m'as-|
 D,4 C,2 B,,2 | D,4 G,,3 A,, | B,,3 C, D,2 E,2 | F,8 | D,4 A,,2 C,2 | C,2 C,2 B,,2 G,,2 | %50
w: con- de, ch'al-|tri m'as- *|* * con- *||* de, che|sde- gn'o ge- lo-|
 D,3 E, F,2 C,2 | C,2 C,2 F,4- | F,2 E,D, C,2 B,,2 | C,4 B,,2 A,,2 | B,,2 F,,2 C,4 | F,,4 z2 C,2 | %56
w: si _ a ce-|la to tiem-||* me, ce-|la- to tiem-|me, e'|
"^-natural" G,2 G,2 F,2 D,2 | E,2 F,4 E,D, | C,4 z2 E,2 | F,2 F,2 B,,2 B,,2 | C,2 F,,2 G,,4 | %61
w: le chio- me d'or|fin, _ _ _|_ d'or|fin far- si d'ar-|gen- * *|
 C,4 z4 | z2 C,2 F,,2 F,,2 | G,,2 G,,2 D,4 | G,,4 F,,4 | G,,4 A,,2 F,,2 | C,4 F,,4- | F,,8 |] %68
w: to,|e' la chio-|me d'or fin|far- ci|d'ar- gen- *|* to.|_|

